!!!COM: Palestrina, Giovanni Perluigi da
!!!OPR: Missa Sanctorum meritis
!!!OTL: Agnus I
**kern	**kern	**kern	**kern
*Ibass	*Itenor	*Icalto	*Icant
!Bassus	!Tenor	!Altus	!Cantus
*clefF4	*clefGv2	*clefG2	*clefG2
*k[]	*k[]	*k[]	*k[]
*E:phr	*E:phr	*E:phr	*E:phr
*M4/2	*M4/2	*M4/2	*M4/2
=1	=1	=1	=1
0r	1r	0r	1.a
.	[1D	.	.
.	.	.	2g
=2	=2	=2	=2
0r	2D]	0r	2f
.	2E	.	2e
.	2F	.	1d
.	2G	.	.
=3	=3	=3	=3
0r	1A	1.e	2c
.	.	.	1cc
.	2.G	.	.
.	.	2d	2b
.	4D	.	.
=4	=4	=4	=4
0r	2F	2c	2a
.	2G	2B	2g
.	1D	2.A	1f
.	.	4B	.
=5	=5	=5	=5
1.AA	2.A	4c	2e
.	.	4d	.
.	.	2.e	1cc
.	4B	.	.
.	2c	.	.
.	.	4f	.
2BB	2d	[2g	[2b
=6	=6	=6	=6
2C	2e	4g]	4b]
.	.	4e	4a
2D	4d	2f	1a
.	4c	.	.
1E	2.B	1e	.
.	.	.	2g
.	4c	.	.
=7	=7	=7	=7
1D	1d	2A	1f
.	.	1d	.
2r	1A	.	1e
[2A	.	2c	.
=8	=8	=8	=8
2A]	0r	1B	2r
2G	.	.	1d
2F	.	2A	.
2E	.	2c	2e
=9	=9	=9	=9
2D	2r	2d	2f
2C	1e	2e	2g
1F	.	1A	[1a
.	2d	.	.
=10	=10	=10	=10
1E	2c	1r	2a]
.	2B	.	2g
1AA	2.A	2r	2.cc
.	.	[2A	.
.	4G	.	4b
=11	=11	=11	=11
0r	2F	2A]	2a
.	2G	2B	4g
.	.	.	4f
.	2A	2c	2e
.	2B-	2d	[2d
=12	=12	=12	=12
1r	0A	1e	2d]
.	.	.	2c
[1D	.	2.d	2.f
.	.	4e	4g
=13	=13	=13	=13
2D]	0r	2f	4a
.	.	.	4b
2E	.	2e	1cc
2F	.	1d	.
2G	.	.	2b
=14	=14	=14	=14
1A	1.e	4c	2a
.	.	4d	.
.	.	4e	1cc
.	.	4f	.
1G	.	2.g	.
.	2d	.	2b
.	.	4f	.
=15	=15	=15	=15
1C	2c	1e	2a
.	2B	.	1g
1D	1A	1d	.
.	.	.	2f#
=16	=16	=16	=16
0G	1.B	2r	[0g
.	.	2d	.
.	.	2d	.
.	4A	2d	.
.	4G	.	.
=17	=17	=17	=17
2r	2c	1e	0g]
2G	4B	.	.
.	4A	.	.
2G	1B	2d	.
2G	.	2d	.
=18	=18	=18	=18
1A	0r	1c	0r
2G	.	2B	.
2G	.	[2e	.
=19	=19	=19	=19
1F	0r	4e]	1r
.	.	8d	.
.	.	8c	.
.	.	2d	.
2E	.	2.e	1g
4C	.	.	.
4D	.	4d	.
=20	=20	=20	=20
4E	1r	2c	2g
4F	.	.	.
4G	.	2B	2g
4E	.	.	.
1F	1c	1A	1a
=21	=21	=21	=21
2C	2c	1e	2g
2E	2c	.	2g
4D	1d	2r	1f
4E	.	.	.
4F	.	[2A	.
4G	.	.	.
=22	=22	=22	=22
1A	2c	2A]	2e
.	2c	1e	2.a
1E	1B	.	.
.	.	.	8g#
.	.	.	8f#
.	.	2e	2g#
=23	=23	=23	=23
2r	2.A	2f	2a
1c	.	2.e	2a
.	4B	.	.
.	4c	.	1g
.	4d	4d	.
2c	4e	[2c	.
.	4c	.	.
=24	=24	=24	=24
2G	1d	2c]	1g
2G	.	2B	.
[1A	1c	2.c	2r
.	.	.	[2cc
.	.	4d	.
=25	=25	=25	=25
1A]	2r	0e	2cc]
.	1c	.	2cc
1E	.	.	2g
.	2B	.	2g
=26	=26	=26	=26
2.D	1d	2r	0a
.	.	1f	.
4E	.	.	.
2F	1A	.	.
2D	.	2f	.
=27	=27	=27	=27
1A	0r	2c	2e
.	.	2c	1cc
1G	.	1d	.
.	.	.	2b
=28	=28	=28	=28
1F	2r	2A	2cc
.	1c	1f	2a
1C	.	.	4g
.	.	.	8a
.	.	.	8b
.	2c	[2e	[2cc
=29	=29	=29	=29
0r	2G	2e]	4cc]
.	.	.	4b
.	2G	1d	2.b
.	1A	.	.
.	.	.	4a
.	.	2c	[2a
=30	=30	=30	=30
1r	1E	1B	2a]
.	.	.	2g#
[1F	2.c	2.A	1a
.	4B	4B	.
=31	=31	=31	=31
2F]	4A	2c	2r
.	4G	.	.
2F	1A	2.f	1cc
2C	.	.	.
.	.	4e	.
2C	2G	[2e	2cc
=32	=32	=32	=32
0D	0F	2e]	1.a
.	.	4d	.
.	.	4c	.
.	.	1d	.
.	.	.	2b
=33	=33	=33	=33
0AA	[0E	2.e	2.cc
.	.	4d	4b
.	.	1c	1a
=34	=34	=34	=34
0E	0E]	0B	0g#
==	==	==	==
*-	*-	*-	*-
!!!CDT: 1525/^1526/-1594/2/2
!!!OCY: Italia
!!!AGN: Mass (Paraphrase)
!!!AST: renaissance, vocal
!!!ASW: Hymn
!!!PWK: Masses, Book 7
!!!RNB: Cadence finals: A,C
!!!YOR: Le Opere Complete, v. 23, p. 30
!!!YOO: Rome, Italy: Fratelli Scalera
!!!END: 1992//
!!!EED: John Miller
!!!YEC: Copyright 2000, John Miller
!!!YEN: United States of America
!!!YEM: Rights to all derivative electronic formats reserved.
!!!YEM: Refer to licensing agreement for further details.
!!!YEM: This file must be accompanied by the licensing agreement.
!!!YEM: A copy of the licensing agreement may be found at http://www.music-cog.ohio-state.edu/HumdrumDatabases/Palestrina/license.txt
!!!EMD: converted to Humdrum by Bret Aarden
